X: 7
T:Idbury Hill, Bledington
M:4/4
L:1/8
A:Bledington
P:A(AB4)
K:DDor
P:A
|:A2AB c2A2|GFED C2DE|F2A2 AGFE|D4  D4:|
P:B
|:A2AB c2A2|dcBA G2G2|A2AB c2A2|d3c A4 |
  A2AB c2A2|GFED C2DE|F2A2 AGFE|D4  D4:|

